flaticon/coffee-shop/frappe-4.svg

<svg xmlns="http://www.w3.org/2000/svg" width="32" height="32" viewBox="0 0 24 24">
    <path d="M 14.996094 19.179688 C 19.84375 18.789062 21.601562 13.605469 21.601562 8.839844 C 21.601562 8.601562 21.441406 8.441406 21.199219 8.441406 L 17.589844 8.441406 C 17.597656 8.253906 17.601562 8.066406 17.601562 7.878906 L 17.601562 5.199219 C 17.601562 2.761719 15.640625 0.800781 13.199219 0.800781 C 12.988281 0.800781 12.78125 0.816406 12.574219 0.84375 C 11.839844 0.28125 10.9375 0 10 0 C 9.066406 0 8.164062 0.28125 7.398438 0.839844 C 7.203125 0.8125 7.003906 0.800781 6.800781 0.800781 C 4.601562 0.800781 2.71875 2.441406 2.441406 4.640625 C 2.441406 4.640625 2.441406 4.679688 2.441406 4.71875 L 2.441406 4.761719 C 2.398438 4.839844 2.398438 4.921875 2.398438 5 L 2.398438 8.160156 C 2.398438 8.3125 2.417969 8.457031 2.453125 8.597656 C 2.519531 10.085938 2.792969 11.539062 3.28125 12.921875 L 4.320312 15.878906 C 4.957031 17.726562 5.214844 19.675781 5.089844 21.605469 C 5.046875 22.109375 4.984375 22.605469 4.921875 23.078125 C 4.878906 23.320312 4.921875 23.558594 5.078125 23.71875 C 5.238281 23.878906 5.441406 24 5.679688 24 L 14.320312 24 C 14.558594 24 14.800781 23.878906 15 23.71875 C 15.121094 23.558594 15.199219 23.320312 15.160156 23.078125 C 15.039062 22.480469 15 21.839844 14.960938 21.199219 C 14.960938 21.140625 14.945312 21.082031 14.925781 21.035156 C 14.910156 20.414062 14.933594 19.796875 14.996094 19.179688 Z M 20.800781 9.199219 C 20.71875 11.3125 20.164062 17.746094 15.101562 18.351562 C 15.234375 17.515625 15.441406 16.6875 15.71875 15.878906 L 16.761719 12.921875 C 17.175781 11.730469 17.4375 10.472656 17.542969 9.199219 Z M 13.238281 1.601562 C 15.078125 1.601562 16.601562 3 16.800781 4.800781 L 11.199219 4.800781 C 11.164062 4.476562 11.097656 4.171875 11 3.878906 C 10.886719 3.515625 10.730469 3.175781 10.53125 2.859375 C 10.527344 2.855469 10.523438 2.847656 10.519531 2.839844 C 11.238281 2.039062 12.199219 1.601562 13.238281 1.601562 Z M 8.480469 1.121094 C 9.441406 0.679688 10.558594 0.679688 11.519531 1.121094 C 11.328125 1.203125 11.140625 1.296875 10.960938 1.40625 C 10.820312 1.492188 10.679688 1.585938 10.546875 1.683594 C 10.355469 1.828125 10.171875 1.988281 10 2.160156 C 9.886719 2.046875 9.765625 1.9375 9.640625 1.835938 C 9.449219 1.671875 9.242188 1.527344 9.023438 1.398438 C 8.847656 1.292969 8.664062 1.199219 8.480469 1.121094 Z M 3.199219 4.878906 C 3.199219 4.878906 3.398438 1.601562 6.839844 1.601562 C 7.238281 1.601562 7.621094 1.664062 7.980469 1.785156 C 8.644531 2.027344 9.238281 2.46875 9.679688 3.039062 C 10.074219 3.566406 10.308594 4.175781 10.378906 4.800781 L 7.878906 4.800781 C 7.28125 4.800781 6.800781 5.28125 6.800781 5.878906 L 6.800781 7.160156 C 6.800781 7.359375 6.679688 7.558594 6.480469 7.601562 C 6.460938 7.605469 6.441406 7.609375 6.421875 7.609375 C 6.402344 7.609375 6.386719 7.609375 6.367188 7.609375 C 6.300781 7.605469 6.242188 7.582031 6.203125 7.554688 C 6.183594 7.542969 6.171875 7.53125 6.160156 7.519531 C 6.039062 7.441406 6 7.320312 6 7.199219 L 6 6 C 6 5.761719 5.839844 5.601562 5.601562 5.601562 C 5.359375 5.601562 5.199219 5.761719 5.199219 6 L 5.199219 8.121094 C 5.199219 8.601562 4.921875 9.039062 4.480469 9.121094 C 4.359375 9.160156 4.199219 9.160156 4 9.121094 L 3.921875 9.078125 L 3.878906 9.078125 C 3.839844 9.078125 3.800781 9.078125 3.761719 9.039062 L 3.71875 9 C 3.640625 8.960938 3.640625 8.921875 3.558594 8.878906 C 3.519531 8.839844 3.480469 8.800781 3.441406 8.761719 C 3.320312 8.601562 3.238281 8.441406 3.238281 8.238281 C 3.238281 8.179688 3.226562 8.125 3.199219 8.078125 L 3.199219 5 C 3.199219 4.960938 3.199219 4.921875 3.199219 4.878906 Z M 3.332031 9.777344 L 3.328125 9.78125 C 3.328125 9.78125 3.328125 9.777344 3.328125 9.773438 C 3.328125 9.773438 3.328125 9.773438 3.332031 9.777344 Z M 5.039062 15.601562 L 4 12.640625 C 3.691406 11.746094 3.453125 10.78125 3.332031 9.808594 C 3.367188 9.839844 3.40625 9.84375 3.480469 9.878906 C 3.558594 9.878906 3.601562 9.921875 3.640625 9.921875 L 3.675781 9.921875 C 3.71875 9.933594 3.765625 9.945312 3.808594 9.953125 C 3.820312 9.957031 3.828125 9.960938 3.839844 9.960938 C 3.890625 9.976562 3.941406 9.988281 3.992188 9.992188 C 4.09375 10.003906 4.191406 10.007812 4.292969 9.996094 C 4.664062 9.980469 5.023438 9.859375 5.320312 9.601562 C 5.71875 9.28125 5.960938 8.800781 6 8.320312 C 6.199219 8.398438 6.398438 8.398438 6.601562 8.398438 C 7.160156 8.28125 7.601562 7.761719 7.601562 7.160156 L 7.601562 5.878906 C 7.601562 5.71875 7.71875 5.601562 7.878906 5.601562 L 16.800781 5.601562 L 16.800781 7.839844 C 16.800781 8.132812 16.789062 8.425781 16.773438 8.714844 C 16.765625 8.742188 16.761719 8.769531 16.761719 8.800781 C 16.742188 9.101562 16.714844 9.398438 16.679688 9.699219 C 16.550781 10.695312 16.320312 11.675781 16 12.640625 L 14.960938 15.601562 C 14.382812 17.273438 14.089844 19.042969 14.105469 20.800781 L 5.894531 20.800781 C 5.910156 19.035156 5.617188 17.28125 5.039062 15.601562 Z M 5.679688 23.199219 C 5.769531 22.667969 5.832031 22.132812 5.867188 21.601562 L 14.121094 21.601562 C 14.140625 21.890625 14.171875 22.171875 14.210938 22.445312 C 14.238281 22.699219 14.277344 22.949219 14.320312 23.199219 Z M 5.679688 23.199219"/>
    <path d="M 7.199219 20 C 7.441406 20 7.601562 19.800781 7.601562 19.558594 C 7.480469 18 7 16.398438 6.519531 15.078125 L 5.480469 12.039062 C 5.398438 11.71875 5.28125 11.441406 5.199219 11.121094 C 5.160156 10.921875 4.921875 10.800781 4.71875 10.839844 C 4.519531 10.878906 4.398438 11.121094 4.441406 11.320312 C 4.519531 11.679688 4.640625 11.960938 4.761719 12.320312 L 5.800781 15.359375 C 6.238281 16.640625 6.71875 18.160156 6.800781 19.640625 C 6.800781 19.839844 7 20 7.199219 20 Z M 7.199219 20"/>
</svg>

<svg xmlns="http://www.w3.org/2000/svg" width="32" height="32" viewBox="0 0 24 24">
    <path d="M14.996 19.18c4.848-.39 6.606-5.575 6.606-10.34 0-.238-.16-.399-.403-.399h-3.61c.009-.187.013-.375.013-.562v-2.68A4.389 4.389 0 0 0 13.199.801c-.21 0-.418.015-.625.043C11.84.28 10.938 0 10 0c-.934 0-1.836.281-2.602.84a4.4 4.4 0 0 0-4.957 3.8v.122c-.043.078-.043.16-.043.238v3.16c0 .152.02.297.055.438.067 1.488.34 2.941.828 4.324l1.04 2.957c.636 1.848.894 3.797.769 5.726-.043.504-.106 1-.168 1.473-.043.242 0 .48.156.64.16.16.363.282.602.282h8.64c.239 0 .48-.121.68-.281a.86.86 0 0 0 .16-.64c-.12-.599-.16-1.24-.2-1.88a.439.439 0 0 0-.034-.164c-.016-.62.008-1.238.07-1.855zm5.805-9.98c-.082 2.113-.637 8.546-5.7 9.152.133-.836.34-1.665.618-2.473l1.043-2.957c.414-1.192.675-2.45.781-3.723zm-7.563-7.598A3.594 3.594 0 0 1 16.801 4.8h-5.602A4.392 4.392 0 0 0 11 3.879a4.316 4.316 0 0 0-.469-1.02c-.004-.004-.008-.011-.011-.02.718-.8 1.68-1.237 2.718-1.237zm-4.758-.48a3.653 3.653 0 0 1 3.04 0 4.423 4.423 0 0 0-.56.284c-.14.086-.28.18-.413.278A5.25 5.25 0 0 0 10 2.16a4.721 4.721 0 0 0-.36-.324 4.296 4.296 0 0 0-.617-.438c-.175-.105-.359-.199-.543-.277zM3.2 4.878s.198-3.277 3.64-3.277c.398 0 .781.062 1.14.183a3.826 3.826 0 0 1 1.7 1.254c.394.527.629 1.137.699 1.762h-2.5C7.28 4.8 6.8 5.28 6.8 5.879V7.16c0 .2-.121.399-.32.442a.301.301 0 0 1-.06.007h-.054a.327.327 0 0 1-.164-.054c-.02-.012-.031-.024-.043-.035C6.04 7.44 6 7.32 6 7.2V6c0-.238-.16-.398-.398-.398-.243 0-.403.16-.403.398v2.121c0 .48-.277.918-.719 1-.12.04-.28.04-.48 0l-.078-.043h-.043c-.04 0-.078 0-.117-.039L3.719 9c-.078-.04-.078-.078-.16-.121l-.118-.117c-.12-.16-.203-.32-.203-.524a.314.314 0 0 0-.039-.16V5v-.121zm.132 4.898l-.004.004v-.008l.004.004zm1.707 5.825L4 12.64a14.117 14.117 0 0 1-.668-2.832c.035.03.074.035.148.07.079 0 .122.043.16.043h.036c.043.012.09.023.133.031.011.004.02.008.03.008a1.291 1.291 0 0 0 .453.035c.372-.016.731-.137 1.028-.394.399-.32.64-.801.68-1.282.2.078.398.078.602.078.558-.117 1-.636 1-1.238V5.88c0-.16.117-.277.277-.277H16.8V7.84c0 .293-.012.586-.028.875a.305.305 0 0 0-.011.086c-.02.3-.047.597-.082.898-.13.996-.36 1.977-.68 2.942l-1.04 2.96a15.541 15.541 0 0 0-.855 5.2h-8.21a15.541 15.541 0 0 0-.856-5.2zm.64 7.597c.09-.531.153-1.066.188-1.597h8.254c.02.289.05.57.09.843.027.254.066.504.11.754zm0 0"/>
    <path d="M7.2 20c.241 0 .402-.2.402-.441C7.48 18 7 16.399 6.52 15.079l-1.04-3.04c-.082-.32-.199-.598-.28-.918-.04-.2-.278-.32-.481-.281-.2.039-.32.281-.278.48.079.36.2.64.32 1l1.04 3.04c.437 1.28.918 2.8 1 4.28 0 .2.199.36.398.36zm0 0"/>
</svg>
